src/ui/images/mark/articulation/accent.svg

<?xml version="1.0" encoding="UTF-8" standalone="no"?>
<svg
   xmlns:dc="http://purl.org/dc/elements/1.1/"
   xmlns:cc="http://web.resource.org/cc/"
   xmlns:rdf="http://www.w3.org/1999/02/22-rdf-syntax-ns#"
   xmlns:svg="http://www.w3.org/2000/svg"
   xmlns="http://www.w3.org/2000/svg"
   xmlns:xlink="http://www.w3.org/1999/xlink"
   xmlns:sodipodi="http://sodipodi.sourceforge.net/DTD/sodipodi-0.dtd"
   xmlns:inkscape="http://www.inkscape.org/namespaces/inkscape"
   viewBox="0 -200 1000 1000"
   id="svg27169"
   sodipodi:version="0.32"
   inkscape:version="0.45.1"
   width="128"
   height="128"
   sodipodi:docname="accent.svg"
   sodipodi:docbase="/home/matevz/canorus/trunk/src/ui/images/mark/articulation"
   inkscape:export-filename="/home/matevz/apps/canorus/branches/matevz/src/fonts/n2.png"
   inkscape:export-xdpi="120.95"
   inkscape:export-ydpi="120.95"
   inkscape:output_extension="org.inkscape.output.svg.inkscape"
   version="1.0">
  <metadata
     id="metadata27178">
    <rdf:RDF>
      <cc:Work
         rdf:about="">
        <dc:format>image/svg+xml</dc:format>
        <dc:type
           rdf:resource="http://purl.org/dc/dcmitype/StillImage" />
      </cc:Work>
    </rdf:RDF>
  </metadata>
  <defs
     id="defs27176">
    <linearGradient
       id="linearGradient33317">
      <stop
         style="stop-color:#000000;stop-opacity:1;"
         offset="0"
         id="stop33319" />
      <stop
         style="stop-color:#646464;stop-opacity:1;"
         offset="1"
         id="stop33321" />
    </linearGradient>
    <linearGradient
       inkscape:collect="always"
       xlink:href="#linearGradient33317"
       id="linearGradient33323"
       x1="49.270287"
       y1="920.35596"
       x2="110.55885"
       y2="920.35596"
       gradientUnits="userSpaceOnUse" />
    <linearGradient
       inkscape:collect="always"
       xlink:href="#linearGradient33317"
       id="linearGradient8122"
       gradientUnits="userSpaceOnUse"
       x1="49.270287"
       y1="920.35596"
       x2="110.55885"
       y2="920.35596" />
    <linearGradient
       inkscape:collect="always"
       xlink:href="#linearGradient33317"
       id="linearGradient19732"
       gradientUnits="userSpaceOnUse"
       x1="49.270287"
       y1="920.35596"
       x2="110.55885"
       y2="920.35596"
       gradientTransform="matrix(5.6766826,0,0,5.6766826,-206.90519,-4941.8885)" />
    <linearGradient
       inkscape:collect="always"
       xlink:href="#linearGradient33317"
       id="linearGradient20714"
       x1="483.75861"
       y1="336.54208"
       x2="900.97968"
       y2="336.54208"
       gradientUnits="userSpaceOnUse"
       gradientTransform="matrix(0.7657372,0,0,0.7657372,175.82664,67.12053)" />
    <linearGradient
       inkscape:collect="always"
       xlink:href="#linearGradient33317"
       id="linearGradient21697"
       gradientUnits="userSpaceOnUse"
       gradientTransform="matrix(0.7657372,0,0,0.7657372,175.82664,67.12053)"
       x1="483.75861"
       y1="336.54208"
       x2="900.97968"
       y2="336.54208" />
    <linearGradient
       inkscape:collect="always"
       xlink:href="#linearGradient33317"
       id="linearGradient21703"
       gradientUnits="userSpaceOnUse"
       gradientTransform="matrix(5.6766826,0,0,5.6766826,-206.90519,-4941.8885)"
       x1="49.270287"
       y1="920.35596"
       x2="110.55885"
       y2="920.35596" />
    <linearGradient
       inkscape:collect="always"
       xlink:href="#linearGradient33317"
       id="linearGradient21707"
       gradientUnits="userSpaceOnUse"
       gradientTransform="matrix(0.5805313,0,0,0.5805313,-202.92606,52.853836)"
       x1="483.75861"
       y1="336.54208"
       x2="900.97968"
       y2="336.54208" />
    <linearGradient
       inkscape:collect="always"
       xlink:href="#linearGradient33317"
       id="linearGradient23661"
       gradientUnits="userSpaceOnUse"
       gradientTransform="matrix(0.5805313,0,0,0.5805313,-202.92606,52.853836)"
       x1="483.75861"
       y1="336.54208"
       x2="900.97968"
       y2="336.54208" />
    <linearGradient
       inkscape:collect="always"
       xlink:href="#linearGradient33317"
       id="linearGradient2238"
       gradientUnits="userSpaceOnUse"
       gradientTransform="matrix(0.5805313,0,0,0.5805313,-216.73483,128.73884)"
       x1="483.75861"
       y1="336.54208"
       x2="2008.1578"
       y2="336.54208" />
    <linearGradient
       inkscape:collect="always"
       xlink:href="#linearGradient33317"
       id="linearGradient2248"
       gradientUnits="userSpaceOnUse"
       gradientTransform="matrix(0.5805313,0,0,0.5805313,-216.73483,128.73884)"
       x1="483.75861"
       y1="336.54208"
       x2="2008.1578"
       y2="336.54208" />
    <linearGradient
       inkscape:collect="always"
       xlink:href="#linearGradient33317"
       id="linearGradient3229"
       x1="-8.1343279"
       y1="250"
       x2="799"
       y2="250"
       gradientUnits="userSpaceOnUse" />
    <linearGradient
       inkscape:collect="always"
       xlink:href="#linearGradient33317"
       id="linearGradient4216"
       gradientUnits="userSpaceOnUse"
       x1="-8.1343279"
       y1="250"
       x2="799"
       y2="250" />
    <linearGradient
       inkscape:collect="always"
       xlink:href="#linearGradient33317"
       id="linearGradient5390"
       x1="-273"
       y1="0.31521606"
       x2="273"
       y2="0.31521606"
       gradientUnits="userSpaceOnUse" />
    <linearGradient
       inkscape:collect="always"
       xlink:href="#linearGradient33317"
       id="linearGradient6377"
       gradientUnits="userSpaceOnUse"
       x1="-273"
       y1="0.31521606"
       x2="273"
       y2="0.31521606" />
    <linearGradient
       inkscape:collect="always"
       xlink:href="#linearGradient33317"
       id="linearGradient7410"
       x1="37.855946"
       y1="19.808781"
       x2="742.65802"
       y2="19.808781"
       gradientUnits="userSpaceOnUse" />
    <linearGradient
       inkscape:collect="always"
       xlink:href="#linearGradient33317"
       id="linearGradient8393"
       gradientUnits="userSpaceOnUse"
       x1="37.855946"
       y1="19.808781"
       x2="742.65802"
       y2="19.808781" />
    <linearGradient
       inkscape:collect="always"
       xlink:href="#linearGradient33317"
       id="linearGradient2212"
       gradientUnits="userSpaceOnUse"
       x1="37.855946"
       y1="19.808781"
       x2="742.65802"
       y2="19.808781" />
    <linearGradient
       inkscape:collect="always"
       xlink:href="#linearGradient33317"
       id="linearGradient3231"
       x1="-225.0625"
       y1="0"
       x2="225"
       y2="0"
       gradientUnits="userSpaceOnUse" />
    <linearGradient
       inkscape:collect="always"
       xlink:href="#linearGradient33317"
       id="linearGradient4210"
       gradientUnits="userSpaceOnUse"
       x1="-225.0625"
       y1="0"
       x2="225"
       y2="0" />
    <linearGradient
       inkscape:collect="always"
       xlink:href="#linearGradient33317"
       id="linearGradient4218"
       gradientUnits="userSpaceOnUse"
       x1="-225.0625"
       y1="0"
       x2="225"
       y2="0" />
    <linearGradient
       inkscape:collect="always"
       xlink:href="#linearGradient33317"
       id="linearGradient4220"
       gradientUnits="userSpaceOnUse"
       x1="-225.0625"
       y1="0"
       x2="225"
       y2="0" />
  </defs>
  <sodipodi:namedview
     inkscape:window-height="979"
     inkscape:window-width="1400"
     inkscape:pageshadow="2"
     inkscape:pageopacity="0.0"
     borderopacity="1.0"
     bordercolor="#666666"
     pagecolor="#ffffff"
     id="base"
     inkscape:zoom="2.8284271"
     inkscape:cx="80.009538"
     inkscape:cy="43.897201"
     inkscape:window-x="0"
     inkscape:window-y="0"
     inkscape:current-layer="svg27169"
     width="128px"
     height="128px" />
  <g
     id="g4212"
     transform="matrix(0.7316792,0,0,0.7316792,281.33302,109.57788)">
    <g
       style="fill:#000000;fill-opacity:0.39215686"
       id="g3233"
       transform="matrix(1.8142882,0,0,-1.8142882,312.70184,270.82813)">
      <path
         style="fill:#000000;fill-opacity:0.39215686"
         id="path3235"
         d="M -212,123 C -208,124.33333 -205,125 -203,125 C -201,125 -133.33333,108 0,74 L 132.5,40.5 C 132.5,40.5 157,34.333333 206,22 C 215.33333,20 221.33333,16 224,10 C 225.33333,3.3333333 225.33333,-3.3333333 224,-10 C 221.33333,-16 215.33333,-20 206,-22 C 205.33333,-22 180.83333,-28.166667 132.5,-40.5 L 0,-74 C -133.33333,-108 -201,-125 -203,-125 C -209.66667,-125 -215.33333,-122 -220,-116 C -226,-108.66667 -226.66667,-101 -222,-93 C -221.33333,-90.333333 -219,-87.666667 -215,-85 C -212.33333,-83 -170.33333,-71.666667 -89,-51 L 34,-20 L 101,-10 L 169,0 L 101,10 L 34,20 L -89,51 C -170.33333,71.666667 -212.33333,83 -215,85 C -221.66667,89 -225,94.666667 -225,102 C -225,111.33333 -220.66667,118.33333 -212,123 z " />
    </g>
    <g
       style="fill:url(#linearGradient4218);fill-opacity:1"
       id="g2209"
       transform="matrix(1.8142884,0,0,-1.8142884,285.12429,249.67904)">
      <path
         style="fill:url(#linearGradient4220);fill-opacity:1"
         id="path2211"
         d="M -212,123 C -208,124.33333 -205,125 -203,125 C -201,125 -133.33333,108 0,74 L 132.5,40.5 C 132.5,40.5 157,34.333333 206,22 C 215.33333,20 221.33333,16 224,10 C 225.33333,3.3333333 225.33333,-3.3333333 224,-10 C 221.33333,-16 215.33333,-20 206,-22 C 205.33333,-22 180.83333,-28.166667 132.5,-40.5 L 0,-74 C -133.33333,-108 -201,-125 -203,-125 C -209.66667,-125 -215.33333,-122 -220,-116 C -226,-108.66667 -226.66667,-101 -222,-93 C -221.33333,-90.333333 -219,-87.666667 -215,-85 C -212.33333,-83 -170.33333,-71.666667 -89,-51 L 34,-20 L 101,-10 L 169,0 L 101,10 L 34,20 L -89,51 C -170.33333,71.666667 -212.33333,83 -215,85 C -221.66667,89 -225,94.666667 -225,102 C -225,111.33333 -220.66667,118.33333 -212,123 z " />
    </g>
  </g>
</svg>

<?xml version="1.0" standalone="no"?>
<!DOCTYPE svg PUBLIC "-//W3C//DTD SVG 1.1//EN" "http://www.w3.org/Graphics/SVG/1.1/DTD/svg11.dtd" >
<svg viewBox="-226 -200 1000 1000">
  <g transform="matrix(1 0 0 -1 0 800)">
   <path fill="currentColor"
d="M-212 123q6 2 9 2t203 -51l132.5 -33.5t73.5 -18.5q14 -3 18 -12q2 -10 0 -20q-4 -9 -18 -12q-1 0 -73.5 -18.5l-132.5 -33.5q-200 -51 -203 -51q-10 0 -17 9q-9 11 -2 23q1 4 7 8q4 3 126 34l123 31l67 10l68 10l-68 10l-67 10l-123 31q-122 31 -126 34q-10 6 -10 17
q0 14 13 21z" />
  </g>

</svg>
